X: 46
T: Ottetals Vals
B:[[Notböcker/Melodier til gamle danske Almuedanse for Violin solo]]
O:Danmark
Z:Søren Bak Vestergaard
M: 3/4
L: 1/4
K: G
!upbow!D|D G G|G F/G/ A|F A A|A G/A/ B|G B B|B A/B/ c|A G F|G z:|\
|:B|B d d|d c/d/ e|A c c|c B/c/ d|G B B|B A/B/ c|A G F|G z:|

